X:1
T:Title
%%score { ( 1 2 ) | ( 3 4 ) }
L:1/8
M:4/4
K:G
V:1 treble nm="Grand Piano"
V:2 treble 
V:3 treble 
V:4 treble 
V:1
 z4 z2[Q:1/4=100] z G | B>_B =B>A [EG]>[^DF] [EG]>[CE] | [B,D]6 [B,D]2 | F>F F>G A>A [Fc]>[Fc] | %4
 B2 _B2 =B2 Bc | d>d d>B A>G G>G |[M:9/8] [Ge]>[Ge][EG]- [EG]/[^DA]/ [=DB]2- [DB][B,D]>[B,D] | %7
[M:4/4] [CE]>[EG] [DF]>E D>D E>F |[M:3/4] [B,G]6 |[M:1/4] B>B |[M:4/4] B2 B2 G2 F>E | %11
 [^DB]6 [EB]>[EB] | [Ec]2 [CE]2 [EG]2 [EA]2 | [^DB]6 [EB]>[EB] | [Ge]>[Ge] [Ge]>[Bd] c>c c>B | %15
 A>A A>G [^DF]2 [DA]>[DA] | [EG]2 [EG]2 [FA]3 G | B B3- B2 ^c2 | d2 A,2 C2 G2 | B2 B,2 D2 D2 | %20
 A8[K:bass][K:treble] |[M:3/4] [G,B,G]6 |] %22
V:2
 z4 z2 D2 | x8 | x8 | x8 | x8 | x8 |[M:9/8] x9 |[M:4/4] x8 |[M:3/4] x6 |[M:1/4] x2 |[M:4/4] x8 | %11
 x8 | x8 | x8 | x8 | x8 | x8 | x8 | x8 | x8 | z2[K:bass] F,2 F,3[K:treble] [G,B,G] |[M:3/4] x6 |] %22
V:3
 z4 z2 [G,B,]2 | [G,DG]>[G,^CG] [G,DG]>[G,DF][K:bass] [C,=C]>[C,C] [C,C]>[C,G,] | %2
 [G,,G,]6 [G,,G,]2 | [D,A,C]>[D,A,C] [D,A,C]>[D,G,B,] [D,F,D]>[D,F,D] [D,A,]>[D,D] | %4
 [G,DG]2 [G,^CG]2 [G,DG]2 z A, | %5
 [G,B,G]>[G,B,G] [G,B,G]>[G,DG][K:bass] [G,CD]>[G,B,D] [G,B,D]>[G,B,] | %6
[M:9/8] [C,C]>[C,C][C,C]- [C,C]/[C,G,]/ [G,,G,]2- [G,,G,][G,,G,]>[G,,G,] | %7
[M:4/4] [C,G,]>[C,G,] [C,G,]>[C,G,C] [D,F,C]>[F,C] [D,G,C]>[D,A,C] |[M:3/4] [G,,G,]6 | %9
[M:1/4] [G,D]>[G,D] |[M:4/4] [F,A,^D]2 [F,A,D]2 [E,B,E]2 [E,A,E]>[E,G,] | [B,,F,]6 [E,G,]>[E,G,] | %12
 [C,G,]2 [C,G,]2 [C,G,]2 [C,E,]2 | [B,,F,]6 [E,G,]>[E,G,] | %14
 [E,G,]>[E,G,] [E,G,]>[E,G,][K:treble] [A,A]>[A,A] [A,A]>[K:bass][G,B,E] | %15
 [F,B,^D]>[F,B,D] [F,B,D]>[E,B,E] [B,,B,]2 [B,,B,]>[B,,B,] | [E,B,]2 [E,B,]2 [D,C]3 [G,B,] | %17
 [G,DG] [G,DG]3- [G,DG]2 G2 | F2[K:bass] D,2 D,2[K:treble] D2 | G2 G,2 G,2 C2 | C8 |[M:3/4] G,,6 |] %22
V:4
 x8 | x4[K:bass] x4 | x8 | x8 | z4 z2 [G,G]2 | x4[K:bass] x4 |[M:9/8] x9 |[M:4/4] x8 |[M:3/4] x6 | %9
[M:1/4] x2 |[M:4/4] x8 | x8 | x8 | x8 | x4[K:treble] x7/2[K:bass] x/ | x8 | x8 | x8 | %18
 x2[K:bass] x4[K:treble] x2 | x8 | z2 D,2 D,3 G,, |[M:3/4] x6 |] %22

